X: 1
T: String Quartet in E\b major opus 9 no 2 mvt 4
C: Franz Joseph Haydn
%%abc-version 2.0
%%abcx-abcm2ps-target-version 5.9.1 (29 Sep 2008)
%%abc-creator hum2abc beta
%%abcx-conversion-date 2021/02/14 14:38:11
%%abc-copyright Copyright (c) 1994, 2000 Center for Computer Assisted Research in the Humanities
%%abc-edited-by Frances Bennion
%%abcx-initial-encoding-date 1997/04/15
%%gracespace 0 6 6
%%humdrum-veritas 2121065291
%%humdrum-veritas-data 2127746072
%%linebreak <none>
%%barnumbers 0
L: 1/16
M: 4/4
N: Derived from op09n2-04.krn
Q: "Finale: Allegro molto"
%%staves [1 2 3 4]
V: 1
V: 2
V: 3 clef=alto
V: 4 clef=bass
K: Eb
[V:1]z14 de[I:setbarnb1] |
[V:2]z14 z2|
[V:3]z14 z2|
[V:4]z14 z2|
[V:1]E2E4 E4 E4 de |
[V:2]z4 B,4 C4 B,4 |
[V:3]z4 G,4 A,4 G,4 |
[V:4]E,4 z12 |
[V:1]E2E4 E4 E4 de |
[V:2]z4 _D4 C4 B,4 |
[V:3]z4 B,4 A,4 G,4 |
[V:4]E,4 z12 |
[V:1]E2E4 E4 E4 de |
[V:2]z4 C4 B,4 A,4 |
[V:3]z4 A,4 G,4 F,4 |
[V:4]E,4 z12 |
[V:1]E2E4 E4 E4 E2 |
[V:2]z4 B,4 A,4 G,4 |
[V:3]z4 G,4 F,4 E,4 |
[V:4]E,4 z12 |
[V:1]DEFG ABcB AGFE DCB,A, |
[V:2]A,16 |
[V:3]F,16 |
[V:4]B,,16 |
[V:1]G,EDE B,EA,E G,4 z4 |
[V:2]G,4 z12 |
[V:3]E,4 z12 |
[V:4]E,4 z12 |
[V:1](3:2:2g8- g=b2c'2 g2|
[V:2]GABA GAFG E4 z4 |
[V:3]EFGF EFDE C4 z4 |
[V:4]z8 z2D2 E2E,2 |
[V:1](3:2:2f8- f=a2b2 f2|
[V:2]FB=AB FGEF D4 z4 |
[V:3]D4 DECD B,4 z4 |
[V:4]D,4 z4 >C4 D2D,2 |
[V:1](3:2:2e8- ec'2=a2 e2|
[V:2]EFGF EFDE C4 z4 |
[V:3]CDED CDB,C =A,4 z4 |
[V:4]C,4 z4 F,4 z4 |
[V:1]d8 b8- |
[V:2]B8 d8 |
[V:3]DEFE DECD B,CDC B,C=A,B, |
[V:4]B,CDC B,C=A,B, G,A,B,A, G,A,F,G, |
[V:1]b2c4 _d4 c4 B2 |
[V:2]c12 C4- |
[V:3]G,16 |
[V:4]E,8 =E,8 |
[V:1]=ABcB ABGA FGAG FGEF |
[V:2]C4 z4 FG=AG FGEF |
[V:3]F,4 z4 FG=AG FGEF |
[V:4]F,4 z4 F,G,=A,G, F,G,E,F, |
[V:1]DBfg fdcB DBfg fdcB |
[V:2]D4 z4 B4 z4 |
[V:3]D4 z4 F4 z4 |
[V:4]D,4 z4 D,4 z4 |
[V:1]bB=aB bBaB bB=AB _ABFB |
[V:2]F16 |
[V:3]D2E2 D2E2 D4 B,4- |
[V:4]D2E2 D2E2 D8 |
[V:1]G2^fg =B2fg c2fg d2fg |
[V:2]G4 =B,4 C4 D4 |
[V:3]B,4 =B,4 C4 D4 |
[V:4]E4 =B,,4 C,4 D,4 |
[V:1]e2^fg =B2fg c2fg d2fg |
[V:2]E4 =B,4 C4 D4 |
[V:3]E4 =B,4 C4 D4 |
[V:4]E,4 =B,,4 C,4 D,4 |
[V:1]e2^fg d2fg e2fg =E2=ab |
[V:2]E4 D4 E4 =E4 |
[V:3]E4 D4 E4 =E4 |
[V:4]E,4 D,4 E,4 =E,4 |
[V:1]F8 c8 |
[V:2]F2B2 B2B2 =A2A2 A2A2 |
[V:3]F2F2 F2F2 F2F2 F2F2 |
[V:4]F,2F,2 F,2F,2 F,,2F,,2 F,,2F,,2 |
[V:1]B4 fg=ab g2c'2 a2d'2 |
[V:2]B4 d2B2 e2c2 f2d2 |
[V:3]B,4 z12 |
[V:4]B,,4 z12 |
[V:1]b2z2 =abc'd' b2e'2 c'2f'2 |
[V:2]g2z2 f2d2 g2e2 =a2f2 |
[V:3]z16 |
[V:4]z16 |
[V:1]d'4 (3:2:5z8 zf'g'f' |
[V:2]b4 z2(3fgf b4 z4 |
[V:3]z8 [B4D4] z4 |
[V:4]z8 B,,4 z4 |
[V:1]b'2(3f'g'f' b'2(3f'g'f' b'2(3f'g'f' d''2=E2 |
[V:2][f2B2]z2 [f2B2]z2 [f2B2]z4 =E2 |
[V:3]D2z2 D2z2 D2z4 =E2 |
[V:4]D,2z2 D,2z2 D,2z4 =E,2 |
[V:1]F8 c8 |
[V:2]F2B2 B2B2 =A2A2 A2A2 |
[V:3]F2F2 F2F2 F2F2 F2F2 |
[V:4]F,2F,2 F,2F,2 F,2F,2 F,2F,2 |
[V:1]Bdcd FdEc DB=AB FBEB |
[V:2]B4 B,2C2 D4 D2C2 |
[V:3]B,4 z4 B,4 z4 |
[V:4]B,,4 z4 B,,4 z4 |
[V:1]D4 [B4D4] [B4D4] z4 |
[V:2]B,FEF DECD B,4 z4 |
[V:3]B,4 F,2E,2 D,4 z4 |
[V:4]B,,4 B,,4 B,,4 z2=A,B, |
[V:1]z4 F4 G4 F4 |
[V:2]z4 D4 E4 D4 |
[V:3]z16 |
[V:4]B,,2B,,4 B,,4 B,,4 =A,B, |
[V:1]z4 _d4 c4 B4 |
[V:2]z4 B4 A4 G4 |
[V:3]z4 =E4 F4 G4 |
[V:4]C,2C,4 C,4 C,4 =E,F, |
[V:1]z4 A4 B4 c4 |
[V:2]z4 F4 G4 A4 |
[V:3]z4 A4 G4 F4 |
[V:4]F,,2F,,4 F,,4 F,,4 =A,B, |
[V:1]z4 c4 B4 A4 |
[V:2]z4 A4 G4 F4 |
[V:3]z4 D4 E4 F4 |
[V:4]B,,2B,,4 B,,4 B,,4 =A,B, |
[V:1]z4 G4 A4 B4 |
[V:2]z4 E4 F4 G4 |
[V:3]z4 G4 F4 E4 |
[V:4]B,,2B,,4 B,,4 B,,4 =A,B, |
[V:1]z4 F4 G4 A4 |
[V:2]z4 D4 E4 F4 |
[V:3]z4 F4 E4 D4 |
[V:4]B,,2B,,4 B,,4 B,,4 =A,B, |
[V:1]z4 G4 =A4 e4 |
[V:2]z4 E4 C4 =A4 |
[V:3]z4 E8 C4 |
[V:4]B,,2B,,4 B,,4 B,,4 =A,B, |
[V:1]d2=AB B,2AB B,4 z2de |
[V:2]B2=AB B,2AB B,4 z4 |
[V:3]B,2=AB B,2AB B,4 z4 |
[V:4]B,,2=A,B, B,,2A,B, B,,4 z4 |
[V:1]E2E4 E4 E4 de |
[V:2]z4 B,4 C4 B,4 |
[V:3]z4 G,4 A,4 G,4 |
[V:4]E,4 z12 |
[V:1]E2E4 E4 E4 =ef |
[V:2]z4 _D4 C4 B,4 |
[V:3]z4 B,4 A,4 G,4 |
[V:4]z16 |
[V:1]F2F4 F4 F4 =ef |
[V:2]z4 C4 D4 C4 |
[V:3]z4 =A,4 B,4 A,4 |
[V:4]F,4 z12 |
[V:1]F2F4 F4 F4 ^fg |
[V:2]z4 E4 D4 C4 |
[V:3]z4 C4 B,4 =A,4 |
[V:4]z16 |
[V:1]G2G4 G4 G4 ^fg |
[V:2]z4 D4 E4 D4 |
[V:3]z4 =B,4 C4 B,4 |
[V:4]G,4 z12 |
[V:1]G2G4 G4 G4 f2 |
[V:2]z4 F4 E4 D4 |
[V:3]z4 D4 C4 =B,4 |
[V:4]z16 |
[V:1]e4 z4 abc'b abga |
[V:2]EFGF EFDE C4 z4 |
[V:3]CDED CDB,C A,4 z4 |
[V:4]C,4 z4 F,G,A,G, F,G,E,F, |
[V:1]f4 z4 gaba gafg |
[V:2]DEFE DECD B,4 z4 |
[V:3]B,CDC B,CA,B, G,4 z4 |
[V:4]D,4 z4 E,F,G,F, E,F,D,E, |
[V:1]e4 z4 fgag fgef |
[V:2]CDED CDB,C A,4 z4 |
[V:3]A,B,CB, A,B,G,A, F,4 z4 |
[V:4]C,4 z4 D,E,F,E, D,E,C,D, |
[V:1]defe decd Bcdc BcAB |
[V:2]defe decd Bcdc BcAB |
[V:3]z8 Bcdc BcAB |
[V:4]B,,4 z12 |
[V:1]GFGA BGFE DEFE DCB,A, |
[V:2]GFGA BGFE DEFE DCB,A, |
[V:3]GFGA BGFE DEFE DCB,A, |
[V:4]G,F,G,A, B,G,F,E, D,E,F,E, D,C,B,,A,, |
[V:1]G,EBc BGFE G,EBc BGFE |
[V:2]G,4 z4 E4 z4 |
[V:3]G,4 z4 B,4 z4 |
[V:4]G,,4 z4 G,,4 z4 |
[V:1]eEdE eEdE eEDE _DEB,E |
[V:2]B,16 |
[V:3]G,2A,2 G,2A,2 G,4 E,4- |
[V:4]G,,2A,,2 G,,2A,,2 G,,8 |
[V:1]C2=Bc =E2Bc F2Bc G2Bc |
[V:2]C4 =E4 F4 G4 |
[V:3]E,4 =E,4 F,4 G,4 |
[V:4]A,,4 =E,,4 F,,4 G,,4 |
[V:1]A2=Bc =E2Bc F2Bc G2Bc |
[V:2]A4 =E4 F4 G4 |
[V:3]A,4 =E,4 F,4 G,4 |
[V:4]A,,4 =E,,4 F,,4 G,,4 |
[V:1]A2=Bc G2Bc A2Bc =A,2de |
[V:2]A4 G,4 A,4 =A,4 |
[V:3]A,4 G,4 A,4 =A,4 |
[V:4]A,,4 G,,4 A,,4 =A,,4 |
[V:1]B,8 F8 |
[V:2]B,2E2 E2E2 D2D2 D2D2 |
[V:3]B,2B,2 B,2B,2 B,2B,2 B,2B,2 |
[V:4]B,,2B,,2 B,,2B,,2 B,,2B,,2 B,,2B,,2 |
[V:1]E4 Bcde c2f2 d2g2 |
[V:2]E4 G2E2 A2F2 B2G2 |
[V:3]E4 z12 |
[V:4]E,4 z12 |
[V:1]e2z2 defg e2a2 f2b2 |
[V:2]c2z2 B2G2 c2A2 d2B2 |
[V:3]z16 |
[V:4]z16 |
[V:1]g4 (3:2:5z8 zbc'b |
[V:2]e4 z2(3BcB e4 z4 |
[V:3]z8 [G,4E4] z4 |
[V:4]z8 E,4 z4 |
[V:1]e'2(3bc'b e'2(3bc'b e'2(3bc'b g'2=A,2 |
[V:2][B2E2]z2 [E2B2]z2 [B2E2]z4 =A,2 |
[V:3]G,2z2 G,2z2 G,2z4 =A,2 |
[V:4]G,2z2 G,2z2 G,2z4 =A,2 |
[V:1]B,8 F8 |
[V:2]B,2E2 E2E2 D2D2 D2D2 |
[V:3]B,2B,2 B,2B,2 B,2B,2 B,2B,2 |
[V:4]B,2B,,2 B,,2B,,2 B,,2B,,2 B,,2B,,2 |
[V:1]EGFG B,GA,F G,EDE B,EA,E |
[V:2]E4 E2F2 G4 G,2A,2 |
[V:3]E4 z4 E4 G,2F,2 |
[V:4]E,4 z4 E,4 z4 |
[V:1]G,4 [E4G,4] [E4G,4] z4 |]
[V:2]G,EDE B,EA,E G,4 z4 |]
[V:3]E,4 G,2F,2 E,4 z4 |]
[V:4]E,,4 E,,4 E,,4 z4 |]

